X: 0833
M: 6/8
L: 1/8
K: C
|:\
|:\
{cd}e2G GEG | {cd}e2c {e}dcd | {cd}e2G GEG | c>dc cAG |\
{cd}e2G GEG | {cd}e2c {e}dcd | ceg geg | c>dc cAG :|

